X:344
T: Humours of Woodstown
N: O'Farrell's Pocket Companion v.4 (Sky ed. p.149)
N: "Irish"
M: 9/8
L: 1/8
Q: 320
R: slip jig
K: D
d/B/| AFE EFE E2E| AFE EFE B2d| AFE EFE E2E| AFD DED B2 :|
d| dfd cec BAF| d2d fed faf| dfd cec BdB| AFE EFE B2 :|
